X: 305684
M: 2/4
L: 1/16
K: A
E2 |\
(3(efe) |\
d2 B4 (3(efe) | c2 A4 (3(efe) | ^defe =dcdB | cAce a2 (3(efe) |\
d2 B4 (3(efe) | c2 A4 (3(efe) | ^defe dBcd | e^def ec"^D.C."=dB |]
K: Am
E2 |\


